X: 4
T: O Come, O Come, Emmanuel
T: Veni, Veni, Emmanuel
C: Plainsong, 13th century
L: 1/4
M: 4/4
V: S
%%MIDI program 1 19 %Church Organ
V: A
%%MIDI program 2 60 %French Horn
V: T clef=treble_8
%%MIDI program 3 57 %Trombone
%%score (S A) T
K: G
[V: S] E | G B B B | (A c B) A | G3 A | B G E G | (A F E) D | E3 A | A E E F | (G2 F) E | D3 G | A B B B | (A c B) A | G3 d | d3 B | B3 B | (A c B) A | G3 A | B G E G | (A F E) D | E3|]
%
[V: A]  E | E B, D G | G3 F | D3 D | D D C D | (E C B,) B, | B,3 (E/D/) | C A, E ^D | (E =D D) ^C | D3 B, | D D D G | G3 F | G3 G | F3 G | F3 G | G3 F | G3 F | G D C D | (E C B,) B, | B,3|]
%
w: O come, O come, Em-man-u-el, And ran-som cap-tive Is__ ra-el, That_ mourns in lone-ly e__xile here Un-til the Son of God ap-pear. Re-joice! Re-joice! Em-man-u el Shall come to thee, O Is-__ ra el.
w:O come, Thou Day-Spring, come and cheer Our spi-rits by Thine ad__vent here Dis_perse the gloom-y clouds__ of night And death's dark sha-dows put to flight.
w:O come, Thou Key of Da-vid, come And o-pen wide our heaven__ly home Make_ safe the way that leads__ on high And close the path to mi-se-ry
%
[V: T]  G, | B, F, G, D | (E2 D) C | B,3 F, | G, G, G, B, | (A,2 G,) F, | G,3 A, | A, C B, A, | (G,2 A,) G, | F,3 G, | F, F, G, D | (E2 D) C | B,3 B, | A,3 E | D3 D | (E2 D) C | B,3 D | D G, G, B, | (A,2 G,) F, | G,3|]

%%abc-version 2.0
%%%%continueall true
%%titletrim true
